!!!!SEGMENT: pl-kozmzk--mzk-m-159--016_walczynski-franciszek--praeludia-organi-op-5-allegro-moderato.krn
!!!cenid: 18xx:2759
!!!COM: Walczyński, Franciszek
!!!COM-rismid: pe30021989
!!!CDT: ~1852-1937
!!!CNT: Polish
!!!OTL: Praeludia organi op. 5 – Allegro moderato
!!!PDT: 1894
!!!AGN: Secular; Prelude
!!!SMS-siglum: PL-KOZmzk
!!!SMS-shelfmark: mzk/m/159
!!!SMS-shelfwork: 016 G
!!!SMS-variant:
!!!SMS-altvar:
!!!NIFC-rismid: 1001116715
!!!URL-scan: https://repozytorium.nifc.pl/islandora/object/pl-kozmzk%3A2265/datastream/PDF/view
!!!ONB-nifc: UWAGA: numeracja plików zgodna z numeracją źrodłową
!!!OMD:16. Allegro moderato.
**kern	**kern	**dynam
*part2	*part1	*part1
*staff2	*staff1	*
*I"[Organo]	*I"[Organo]	*
*clefF4	*clefG2	*
*k[]	*k[]	*
*a:	*a:	*
*M2/4	*M2/4	*
=1	=1	=1
*^	*^	*
2r	(8E\L	2rg	2r	.
.	8D\J	.	.	.
.	8C\L	.	.	.
.	16BB\L	.	.	.
.	16AA\JJ	.	.	.
=2	=2	=2	=2	=2
(8e/L	4GG#X\	2rg	2r	.
8d/J	.	.	.	.
8c/L	8AA\L	.	.	.
16B/L	16BB\L	.	.	.
16A/JJ	16C\JJ	.	.	.
=3	=3	=3	=3	=3
4.G#X^/	8D\L	2rg	2r	.
.	8E\J	.	.	.
.	8F\L	.	.	.
8B/)	16E\L	.	.	.
.	16D\JJ)	.	.	.
=4	=4	=4	=4	=4
!	!	!	!LO:TX:t=P:problem:pf się nie wyświetla	!
[2A/	(4C#X\	2r	(8a\L	pf
.	.	.	8g\J	.
.	8D\L	.	8f\L	.
.	16E\L	.	16e\L	.
.	16F\JJ	.	16d\JJ	.
=5	=5	=5	=5	=5
2A/]	4G\	2r	8c#X\L	.
.	.	.	8e\	.
.	8F\L	.	8d\	.
.	8D\J)	.	8f\J)	.
=6	=6	=6	=6	=6
(4G#X/	[2E\	(8ee/L	[2e\	f
.	.	8dd/J	.	.
8A/L	.	8cc/L	.	.
16B/L	.	16b/L	.	.
16c/JJ	.	16a/JJ	.	.
=7	=7	=7	=7	=7
8B/L	2E\]	8g#X/L	2e\]	.
8d/	.	8b/	.	.
8c/	.	8a/	.	.
8A/J)	.	8cc/J)	.	.
=8	=8	=8	=8	=8
(4d/	(4D\	(8cc/	4f\	.
.	.	4b/	.	.
[4c/	4D#X\	.	4f#X\	.
.	.	[8a/	.	.
!!LO:LB:g=original
=9	=9	=9	=9	=9
8c/L]	[4E\)	8a/L])	[2e\	.
16B/L	.	16g#X/L	.	.
16A/JJ	.	16f#X/JJ	.	.
8G#X/L	8E\L]	8e/L	.	.
16A/L	16F#X\L	8ee/J	.	.
16B/JJ)	16G#\JJ	.	.	.
=10	=10	=10	=10	=10
!	!	!	!	!LO:DY:rj
(4c#X/	[2A\	(8aa/L	4e\]	ff
.	.	8gg/J	.	.
8d/L	.	8ff/L	4a\	.
16e/L	.	16ee/L	.	.
16f/JJ	.	16dd/JJ	.	.
=11	=11	=11	=11	=11
8g/L	4A\]	8cc#X/L	8.a\L	.
8c#X/J	.	8ee/	.	.
.	.	.	16g\Jk	.
4d/)	4D\	8dd/	8f\L	.
.	.	8ff/J)	8a\J	.
=12	=12	=12	=12	=12
!LO:TX:b:i:t=Ped.	!	!	!	!
(8B/L	(8E\L	([2ee/	8g#X\L	.
8G#X/J	8D\J	.	8b\	.
4A/	8C\L	.	8a\	.
.	16BB\L	.	8cc\J	.
.	16AA\JJ	.	.	.
=13	=13	=13	=13	=13
8B/L	8GG#X\L	8ee/L]	[2e\	.
8G#X/J	8BB\J	8dd/J	.	.
8A/L	8AA\L	8cc/L	.	.
8c/J)	8A\J)	16b/L	.	.
.	.	16a/JJ)	.	.
=14	=14	=14	=14	=14
(8e/L	(8B\L	8g#X/L	4e\_	.
8d/J	8G#X\J	8b/	.	.
8c/L	8A\L	8a/	8e\L]	.
16B/L	8F\J	[8cc/J	[8a\J	.
16A/JJ	.	.	.	.
=15	=15	=15	=15	=15
4.e/	2E\	8cc/L]	8a\L]	.
.	.	16b/L	16g#X\L	.
.	.	16a/JJ	16f#X\JJ	.
.	.	4b/	4g#\	.
8d/)	.	.	.	.
=16	=16	=16	=16	=16
!	!	!	!	!LO:DY:a
!	!	!	!	!LO:HP:a
(4c#X/	[2AA\)	[2a/	8a\L	pp <
.	.	.	8gn\J	.
8d/L	.	.	8f\L	.
16c#/L	.	.	16e\L	.
16B/JJ	.	.	16d\JJ	[
=17	=17	=17	=17	=17
!	!	!LO:TX:b:i:t=rit.	!	!LO:HP:a
8A/L	2AA\_	2a/_	4c#X\	>
8E/J	.	.	.	.
8F/L	.	.	8d\L	.
16E/L	.	.	16c#\L	.
16D/JJ	.	.	16B\JJ	.
=18	=18	=18	=18	=18
2E/)	2AA;\]	2a;/]	2c#X\	] pp
*v	*v	*	*	*
*	*v	*v	*
==	==	==
*-	*-	*-
!!!system-decoration: {(s1,s2)}
!!!EED: Andrzej Borzym
!!!EST: 2021-08-08
!!!ENC: Krzysztof Stępień
!!!END: 2021-07-26
